X:73
T:Engelska efter August Strömberg
T:(SmM X-73)
R:Engelska
O:Jät, Småland
S:August Strömberg
B:Småländsk Musiktradition
N:Ca 1870
M:C
L:1/8
K:G
BA/B/ cB/A/ GB, D2|BA/B/ cB/c/ d2 A2|BA/B/ cB AG Fe/e/|ed cF A2 G2|
B/c/d/B/ GA B/c/d/B/ GB|BA/B/ c/B/A/G/ F/G/A/B/ A2|B/c/d/B/ GA B/c/d/B/ Ge/e/|ed cF A2 G2:|
|:g(f/g/) a/g/f/e/ d/c/B/A/ G2|g(f/g/) a/g/f/e/ ed d2|g(f/g/) a/g/f/e/ d/c/B/A/ G2|(B/d/)(B/G/) (A/c/)(A/F/) AG G2:|

